X:1
T:Matlock, 88.88.88
T:Michael Wise, 1684
T:Matlock, 88.88.88
T:Public Domain
C:Michael Wise, 1684
Z:Public Domain
%%score ( 1 2 ) ( 3 4 )
L:1/8
M:4/4
K:D
V:1 treble 
V:2 treble 
V:3 bass 
V:4 bass 
V:1
 [DB]2 | [DB]2 (AG) [DF]2 [B,F]2 | [B,E]2 [^A,E]2 [B,D]2 [DF]2 | [CF]2 [B,^G]2 [A,A]2 [A,A]2 | %4
 [D^G]2 (CB,) [A,F]2 [A,A]2 | [DA]2 (FE) [DB]2 [DA]2 | (DE) [DF]2 [CE]2 [DF]2 | %7
 [B,G]2 [CE]2 [DA]2 D2 | [B,D]2 [A,C]2 [A,D]2 [DF]2 | [DF]2 [DG]2 [DA]2 [Fd]2 | %10
 [Ec]2 [DB]2 [C^A]2 [Fc]2 | [Dd]2 [EB]2 [F^A]2 (ED) | (CD) [E^A]2 [DB]2 |] %13
V:2
 x2 | x2 E2 x4 | x8 | x8 | x2 ^G2 x4 | x2 A2 x4 | G2 x6 | x6 D2 | x8 | x8 | x8 | x6 B2 | B2 x4 |] %13
V:3
 [B,,F,]2 | [B,,F,]2 [C,A,]2 [D,A,]2 [D,F,]2 | [C,G,]2 [F,,F,]2 [B,,F,]2 [B,,F,]2 | %3
 [A,,F,]2 [^G,,^E,]2 [F,,F,]2 [D,F,]2 | [B,,F,]2 [C,^E,]2 [F,,F,]2 [D,F,]2 | %5
 [F,A,]2 (DC) [G,,B,]2 [A,,F,]2 | ([B,,B,][C,A,]) [D,A,]2 [A,,A,]2 [F,A,]2 | %7
 [E,G,]2 [G,A,]2 [F,A,]2 ([B,,G,][A,,F,]) | G,,2 z E, [D,F,]2 [D,A,]2 | %9
 B,2 [G,B,]2 [F,A,]2 [D,A,]2 | [E,G,]2 [B,,F,]2 F,2 [^A,,F,]2 | [B,,F,]2 [G,B,]2 [F,C]2 (G,F,) | %12
 [E,G,]2 F,2 [B,,F,]2 |] %13
V:4
 x2 | x8 | x8 | x8 | x8 | x2 D,2 x4 | x8 | x8 | E,3 A,,2 x3 | B,2 x6 | x4 F,2 x2 | x6 B,2 | %12
 x2 F,2 x2 |] %13

